X: 31200
T: Paddy Fahey's
R: hornpipe
M: 4/4
K: Gmajor
|:B,A,|G,B,DG BAGF|ECEG c3A|((3Bcd) gd B3d|cBAG ((3FED) ((3CB,A,)|
G,B,DG BAGF|ECEG c3A|((3Bcd) gd ^cdDF|AGBA G2:|
|:Bc|dgba gdBc|dcAg f3a|gdBg fdAG|FAdc d3c|
((3Bcd) BG c3A|((3Bcd) fa gedc|((3Bcd) gd ^cdDF|AGBA G2:|

